!!!!SEGMENT: pl-sa--103-a-iii-3--003_anonim--a-my-dziady.krn
!!!cenid: 17xx:1737
!!!COM: Anonim
!!!COM-rismID: pe30004985
!!!CDT:
!!!CNT:
!!!OTL: A my dziady
!!!PDT:
!!!AGN: Sacred
!!!SMS-siglum: PL-SA
!!!SMS-shelfmark: 103/A III 3
!!!SMS-shelfwork: 003 W
!!!SMS-variant:
!!!SMS-altvar:
!!!NIFC-rismSourceID: 1001069970
!!!NIFC-islandoraID:
!!!URL-pdf-islandora:
!!!URL-scan: https://bc.bdsandomierz.pl/dlibra/publication/1459/edition/1427/content @EN{Scan on Cyfrowa Biblioteka Diecezjalna w Sandomierzu} @PL{Skany w portalu Cyfrowa Biblioteka Diecezjalna w Sandomierzu}
!!!ONB-nifc: UWAGA: części: 1. Pasterze przy trzodzie, 2. A ja kozak, 3. A my dziady
!!!AIN: 1 bass 2 soprn 2 violn
!!!key:
**kern	**fba	**kern	**dynam	**kern	**dynam	**kern	**text	**kern	**text	**text	**kern	**text	**text
*part6	*	*part5	*	*part4	*part4	*part3	*part3	*part2	*part2	*	*part1	*part1	*
*staff6	*	*staff5	*	*staff4	*	*staff3	*staff3	*staff2	*staff2	*	*staff1	*staff1	*
*I"Fundamento.	*	*I"Violino 2do.	*	*I"Violino Primo.	*	*I"Baſso.	*	*I"Canto Secundo.	*	*	*I"Canto Primo.	*	*
*I'bc	*	*I'vl 2	*	*I'vl 1	*	*I'B	*	*I'S 2	*	*	*I'S 1	*	*
*	*	*Ivioln	*	*Ivioln	*	*Ibass	*	*Isoprn	*	*	*Isoprn	*	*
*	*	*ICstr	*	*ICstr	*	*ICvox	*	*ICvox	*	*	*ICvox	*	*
*IGcont	*	*	*	*	*	*IGsolo	*	*IGsolo	*	*	*IGsolo	*	*
*clefF4	*	*clefG2	*	*clefG2	*	*clefF4	*	*clefC1	*	*	*clefC1	*	*
*k[b-e-]	*	*k[b-e-]	*	*k[b-e-]	*	*k[b-e-]	*	*k[b-e-]	*	*	*k[b-e-]	*	*
*B-:	*	*B-:	*	*B-:	*	*B-:	*	*B-:	*	*	*B-:	*	*
*M2/4	*	*M2/4	*	*M2/4	*	*M2/4	*	*M2/4	*	*	*M2/4	*	*
=1	=1	=1	=1	=1	=1	=1	=1	=1	=1	=1	=1	=1	=1
!LO:TX:t=P::problem=caudy drobnych nut nieregularnie&colon; global	!	!	!	!	!	!	!	!	!	!	!LO:TX:a:B:t=Lente	!	!
4G\	.	8g/L	.	8g/L	.	0r	.	0r	.	.	0r	.	.
.	.	16d/L	.	16d/L	.	.	.	.	.	.	.	.	.
.	.	16g/JJ	.	16g/JJ	.	.	.	.	.	.	.	.	.
!	!	!LO:TX:t=P:problem=cauda po prawej	!	!	!	!	!	!	!	!	!	!	!
4GG/	.	8g\L	.	8b-\L	.	.	.	.	.	.	.	.	.
.	.	8b-\J	.	8dd\J	.	.	.	.	.	.	.	.	.
=2	=2	=2	=2	=2	=2	=2	=2	=2	=2	=2	=2	=2	=2
8D/L	#	8a/L	.	8cc\L	.	.	.	.	.	.	.	.	.
8DD/J	.	16g/L	.	16b-\L	.	.	.	.	.	.	.	.	.
.	.	16f#X/JJ	.	16a\JJ	.	.	.	.	.	.	.	.	.
8GG/L	.	4g/	.	4g/	.	.	.	.	.	.	.	.	.
8BB-/J	.	.	.	.	.	.	.	.	.	.	.	.	.
!LO:LB:g=original	!	!	!	!	!	!	!	!	!	!	!	!	!
=3	=3	=3	=3	=3	=3	=3	=3	=3	=3	=3	=3	=3	=3
4G\	.	8g/L	.	8g/L	.	.	.	.	.	.	.	.	.
.	.	16d/L	.	16d/L	.	.	.	.	.	.	.	.	.
.	.	16g/JJ	.	16g/JJ	.	.	.	.	.	.	.	.	.
4GG/	.	8g/L	.	8b-\L	.	.	.	.	.	.	.	.	.
.	.	8b-/J	.	8dd\J	.	.	.	.	.	.	.	.	.
=4	=4	=4	=4	=4	=4	=4	=4	=4	=4	=4	=4	=4	=4
4D\	7 #	4a/	.	4cc\	.	.	.	.	.	.	.	.	.
4GG/	.	4g/	.	4b-\	.	.	.	.	.	.	.	.	.
=5	=5	=5	=5	=5	=5	=5	=5	=5	=5	=5	=5	=5	=5
4G\	.	8g/L	.	8g/L	.	0r	.	0r	.	.	0r	.	.
.	.	16d/L	.	16d/L	.	.	.	.	.	.	.	.	.
.	.	16g/JJ	.	16g/JJ	.	.	.	.	.	.	.	.	.
4GG/	.	8g/L	.	8b-\L	.	.	.	.	.	.	.	.	.
.	.	8b-/J	.	8dd\J	.	.	.	.	.	.	.	.	.
!	!	!	!	!LO:LB:g=original	!	!	!	!	!	!	!	!	!
=6	=6	=6	=6	=6	=6	=6	=6	=6	=6	=6	=6	=6	=6
8D\L	#	8a/L	.	8cc\L	.	.	.	.	.	.	.	.	.
8D\J	.	16g/L	.	16b-\L	.	.	.	.	.	.	.	.	.
.	.	16f#X/JJ	.	16a\JJ	.	.	.	.	.	.	.	.	.
8GG/L	.	4g/	.	4g/	.	.	.	.	.	.	.	.	.
8BB-/J	.	.	.	.	.	.	.	.	.	.	.	.	.
=7	=7	=7	=7	=7	=7	=7	=7	=7	=7	=7	=7	=7	=7
!LO:TX:t=P:problem=mixed beam	!	!	!	!	!	!	!	!	!	!	!	!	!
8E-\L	.	8g/L	.	8b-/L	.	.	.	.	.	.	.	.	.
8C\	.	16f#X/L	.	16a/L	.	.	.	.	.	.	.	.	.
.	.	16g/JJ	.	16g/JJ	.	.	.	.	.	.	.	.	.
8D\	4	8f#/L	.	8a/L	.	.	.	.	.	.	.	.	.
8DD/J	#	8d/J	.	8f#X/J	.	.	.	.	.	.	.	.	.
=8	=8	=8	=8	=8	=8	=8	=8	=8	=8	=8	=8	=8	=8
4GG/	.	4g/	.	4g/	.	.	.	.	.	.	.	.	.
4GG/	.	4G/	.	4G/	.	.	.	.	.	.	.	.	.
=9	=9	=9	=9	=9	=9	=9	=9	=9	=9	=9	=9	=9	=9
!	!	!	!	!	!	!LO:TX:t=P::problem=caudy drobnych nut nieregularnie&colon; global	!	!LO:TX:t=P::problem=caudy drobnych nut nieregularnie&colon; global	!	!	!LO:TX:t=P::problem=caudy drobnych nut nieregularnie&colon; global	!	!
8GG|>/L	.	0r	.	0r	.	8G\	A	8g\	A	.	8g\	A	.
8FF#X|>/	.	.	.	.	.	8F#X\	my	8f#X\	my	.	8f#X\	my	.
!	!	!	!	!	!	!	!	!	!	!	!LO:LB:g=original	!	!
8GG|>/	.	.	.	.	.	8G\	Dzia-	8g\	Dzia-	.	8g\	Dzia-	.
8AA|>/J	.	.	.	.	.	8A\	-dy	8a\	-dy	.	8a\	-dy	.
=10	=10	=10	=10	=10	=10	=10	=10	=10	=10	=10	=10	=10	=10
8BB-|>/L	.	.	.	.	.	8B-\	co	8b-\	co	.	8b-\	co	.
8AA|>/	.	.	.	.	.	8A\	tez	8a\	tez	.	8a\	tez	.
!	!	!	!	!	!	!LO:LB:g=original	!	!	!	!	!	!	!
8BB-|>/	.	.	.	.	.	8B-\	Pa-	8b-\	Pa-	.	8b-\	Pa-	.
8C|>/J	.	.	.	.	.	8c\	-nu	8cc\	-nu	.	8cc\	-nu	.
!	!	!	!	!	!	!	!	!LO:LB:g=original	!	!	!	!	!
=11	=11	=11	=11	=11	=11	=11	=11	=11	=11	=11	=11	=11	=11
4D|>/	.	.	.	.	.	4d\	od-	4dd\	od-	.	4dd\	od-	.
8C|>/L	.	.	.	.	.	8c\L	-da-	8cc\L	-da-	.	(>8cc\L	-da-	.
8BB-|>/J	.	.	.	.	.	8B-\J	.	8b-\J	.	.	8b-\J)	.	.
=12	=12	=12	=12	=12	=12	=12	=12	=12	=12	=12	=12	=12	=12
*	*	*	*	*	*	*2\right	*	*2\right	*	*	*2\right	*	*
!	!	!	!	!	!	!LO:TX:t=P::problem=caudy półnut po prawej&colon; global	!	!	!	!	!LO:TX:t=P::problem=caudy półnut po prawej&colon; global	!	!
2AA/	.	.	.	.	.	2A\	-my	2a\	-my	.	2a\	-my	.
=13	=13	=13	=13	=13	=13	=13	=13	=13	=13	=13	=13	=13	=13
*	*	*	*	*	*	*	*	*	*ij	*	*	*	*
4D|\	.	0r	.	0r	.	4d\	co	4dd\	od-	.	4dd\	co	.
8C|>/L	.	.	.	.	.	8c\L	da-	8cc\L	-da-	.	8cc\L	da-	.
8BB-|>/J	.	.	.	.	.	8B-\J	.	8b-\J	.	.	8b-\J	.	.
=14	=14	=14	=14	=14	=14	=14	=14	=14	=14	=14	=14	=14	=14
2AA|>/	.	.	.	.	.	2A\	-my	2a\	-my	.	2a\	-my	.
*	*	*	*	*	*	*	*	*	*Xij	*	*	*	*
!LO:LB:g=original	!	!	!	!	!	!	!	!	!	!	!	!	!
=15	=15	=15	=15	=15	=15	=15	=15	=15	=15	=15	=15	=15	=15
8GG|>/L	.	.	.	.	.	8G\	Kie-	8g\	Kie-	.	8g\	Kie-	.
8FF#X|>/	.	.	.	.	.	8F#X\	-dy	8f#X\	-dy	.	8f#X\	-dy	.
!	!	!	!	!	!	!	!	!	!	!	!LO:PB:g=original	!	!
8GG|>/	.	.	.	.	.	8G\	sa-	8g\	sa-	.	8g\	sa-	.
8AA|>/J	.	.	.	.	.	8A\	-mi	8a\	-mi	.	8a\	-mi	.
=16	=16	=16	=16	=16	=16	=16	=16	=16	=16	=16	=16	=16	=16
8BB-|>/L	.	.	.	.	.	8B-\	nic	8b-\	nic	.	8b-\	nic	.
8AA|>/	.	.	.	.	.	8A\	mi-	8a\	mi-	.	8a\	mi-	.
8BB-|>/	.	.	.	.	.	8B-\	-łe-	8b-\	-łe-	.	8b-\	-łe-	.
8C|>/J	.	.	.	.	.	8c\	-go	8cc\	-go	.	8cc\	-go	.
!	!	!	!	!	!	!	!	!LO:LB:g=original	!	!	!	!	!
=17	=17	=17	=17	=17	=17	=17	=17	=17	=17	=17	=17	=17	=17
4D|>\	.	0r	.	0r	.	4d\	nie	4dd\	nie	.	4dd\	nie	.
8C|>\L	.	.	.	.	.	8c\L	ma-	8cc\L	ma-	.	8cc\L	ma-	.
8BB-|>\J	.	.	.	.	.	8B-\J	.	8b-\J	.	.	8b-\J	.	.
!	!	!	!	!	!	!LO:LB:g=original	!	!	!	!	!	!	!
=18	=18	=18	=18	=18	=18	=18	=18	=18	=18	=18	=18	=18	=18
2AA|>/	.	.	.	.	.	2A\	-my	2a\	-my	.	2a\	-my	.
=19	=19	=19	=19	=19	=19	=19	=19	=19	=19	=19	=19	=19	=19
4C|>/	.	.	.	.	.	4c\	nie	4cc\	nie	.	4cc\	nie	.
8BB-|>/L	.	.	.	.	.	8B-\L	ma-	8b-\L	ma-	.	8b-\L	ma-	.
8AA|>/J	.	.	.	.	.	8A\J	.	8a\J	.	.	8a\J	.	.
=20	=20	=20	=20	=20	=20	=20	=20	=20	=20	=20	=20	=20	=20
2GG/	.	.	.	.	.	2G\	-my	2g\	-my	.	2g\	-my	.
!	!	!LO:LB:g=original	!	!	!	!	!	!	!	!	!	!	!
=21	=21	=21	=21	=21	=21	=21	=21	=21	=21	=21	=21	=21	=21
!	!	!	!	!	!LO:DY:a	!	!	!	!	!	!	!	!
4G\	.	8g/L	.	8g/L	f	0r	.	0r	.	.	0r	.	.
.	.	16d/L	.	16d/L	.	.	.	.	.	.	.	.	.
.	.	16g/JJ	.	16g/JJ	.	.	.	.	.	.	.	.	.
4GG/	.	8g/L	.	8b-\L	.	.	.	.	.	.	.	.	.
.	.	8b-/J	.	8dd\J	.	.	.	.	.	.	.	.	.
=22	=22	=22	=22	=22	=22	=22	=22	=22	=22	=22	=22	=22	=22
!LO:TX:t=P:problem=mixed beam	!	!	!	!	!	!	!	!	!	!	!	!	!
8D\L	#	8a/L	.	8cc\L	.	.	.	.	.	.	.	.	.
8DD/	.	16g/L	.	16b-\L	.	.	.	.	.	.	.	.	.
.	.	16f#X/JJ	.	16a\JJ	.	.	.	.	.	.	.	.	.
8GG/	.	4g/	.	4g/	.	.	.	.	.	.	.	.	.
8BB-/J	.	.	.	.	.	.	.	.	.	.	.	.	.
=23	=23	=23	=23	=23	=23	=23	=23	=23	=23	=23	=23	=23	=23
4G\	.	8g/L	.	8g/L	.	.	.	.	.	.	.	.	.
.	.	16d/L	.	16d/L	.	.	.	.	.	.	.	.	.
.	.	16g/JJ	.	16g/JJ	.	.	.	.	.	.	.	.	.
4GG/	.	8g/L	.	8b-\L	.	.	.	.	.	.	.	.	.
.	.	8b-/J	.	8dd\J	.	.	.	.	.	.	.	.	.
=24	=24	=24	=24	=24	=24	=24	=24	=24	=24	=24	=24	=24	=24
4D\	7 #	4a/	.	4cc\	.	.	.	.	.	.	.	.	.
4GG/	.	4g/	.	4b-\	.	.	.	.	.	.	.	.	.
=25	=25	=25	=25	=25	=25	=25	=25	=25	=25	=25	=25	=25	=25
4G\	.	8g/L	.	8g/L	.	0r	.	0r	.	.	0r	.	.
.	.	16d/L	.	16d/L	.	.	.	.	.	.	.	.	.
.	.	16g/JJ	.	16g/JJ	.	.	.	.	.	.	.	.	.
4GG/	.	8g/L	.	8b-\L	.	.	.	.	.	.	.	.	.
.	.	8b-/J	.	8dd\J	.	.	.	.	.	.	.	.	.
=26	=26	=26	=26	=26	=26	=26	=26	=26	=26	=26	=26	=26	=26
!LO:TX:t=P:problem=mixed beam	!	!	!	!	!	!	!	!	!	!	!	!	!
8D\L	.	8a/L	.	8cc\L	.	.	.	.	.	.	.	.	.
8DD/	.	16g/L	.	16b-\L	.	.	.	.	.	.	.	.	.
.	.	16f#X/JJ	.	16a\JJ	.	.	.	.	.	.	.	.	.
8GG/	.	4g/	.	4g/	.	.	.	.	.	.	.	.	.
8BB-/J	.	.	.	.	.	.	.	.	.	.	.	.	.
!	!	!	!	!LO:LB:g=original	!	!	!	!	!	!	!	!	!
=27	=27	=27	=27	=27	=27	=27	=27	=27	=27	=27	=27	=27	=27
!LO:TX:t=P:problem=mixed beam	!	!	!	!	!	!	!	!	!	!	!	!	!
8E-\L	.	8g/L	.	8b-/L	.	.	.	.	.	.	.	.	.
8C\	.	16f#X/L	.	16a/L	.	.	.	.	.	.	.	.	.
.	.	16g/JJ	.	16g/JJ	.	.	.	.	.	.	.	.	.
8D\	.	8f#X/L	.	8a/L	.	.	.	.	.	.	.	.	.
8DD/J	#	8d/J	.	8f#X/J	.	.	.	.	.	.	.	.	.
!LO:LB:g=original	!	!	!	!	!	!	!	!	!	!	!	!	!
=28	=28	=28	=28	=28	=28	=28	=28	=28	=28	=28	=28	=28	=28
4G\	.	4g/	.	4g/	.	.	.	.	.	.	.	.	.
4GG/	.	4G/	.	4G/	.	.	.	.	.	.	.	.	.
=29	=29	=29	=29	=29	=29	=29	=29	=29	=29	=29	=29	=29	=29
!	!	!	!	!	!LO:DY:t=pia	!	!	!	!	!	!	!	!
8GG|>/L	.	8g/L	.	8g|/L	p	8G\	A	8g\	a	.	8g/	A	.
8FF#X|>/	.	8f#X/	.	8f#X|/	.	8F#X\	my	8f#X\	my	.	8f#X/	my	.
!	!	!LO:LB:g=original	!	!	!	!	!	!	!	!	!	!	!
8GG|>/	.	8g/	.	8g|/	.	8G\	Dzia-	8g\	dzia-	.	8g\	dzia-	.
8AA|>/J	.	8a/J	.	8a|/J	.	8A\	-dy	8a\	-dy	.	8a\	-dy	.
=30	=30	=30	=30	=30	=30	=30	=30	=30	=30	=30	=30	=30	=30
8BB-|>/L	.	8B-/L	.	8b-|\L	.	8B-\	co	8b-\	co	.	8b-\	co	.
8AA|>/	.	8A/	.	8a|\	.	8A\	tez	8a\	tez	.	8a\	tez	.
8BB-|>/	.	8B-/	.	8b-|\	.	8B-\	Pa-	8b-\	Pa-	.	8b-\	Pa-	.
8C|>/J	.	8c/J	.	8cc|\J	.	8c\	-nu	8cc\	-nu	.	8cc\	-nu	.
!	!	!LO:LB:g=original	!	!	!	!	!	!LO:LB:g=original	!	!	!	!	!
=31	=31	=31	=31	=31	=31	=31	=31	=31	=31	=31	=31	=31	=31
4D|\	.	4d/	.	4dd|\	.	4d\	od-	4dd\	od-	.	4dd\	od-	.
8C|>/L	.	8c/L	.	8cc|\L	.	8c\L	-da-	8cc\L	-da-	.	8cc\L	-da-	.
8BB-|>/J	.	8B-/J	.	8b-|\J	.	8B-\J	.	8b-\J	.	.	8b-\J	.	.
=32	=32	=32	=32	=32	=32	=32	=32	=32	=32	=32	=32	=32	=32
2AA|>/	.	2A/	.	2a/	.	2A\	-my	2a\	-my	.	2a\	-my	.
!	!	!	!	!	!	!LO:PB:g=original	!	!	!	!	!	!	!
=33	=33	=33	=33	=33	=33	=33	=33	=33	=33	=33	=33	=33	=33
8GG|>/L	.	8g/L	.	8g|/L	.	8G\	Kie-	8g\	Kie-	.	8g\	Kie-	.
8FF#X|>/	.	8f#X/	.	8f#X|/	.	8F#X\	-dy	8f#X\	-dy	.	8f#X/	-dy	.
8GG|>/	.	8g/	.	8g|/	.	8G\	sa-	8g\	sa-	.	8g\	sa-	.
8AA|>/J	.	8a/J	.	8a|/J	.	8A\	-mi	8a\	-mi	.	8a\	-mi	.
=34	=34	=34	=34	=34	=34	=34	=34	=34	=34	=34	=34	=34	=34
8BB-|>/L	.	8B-/L	.	8b-|\L	.	8B-\	nic	8b-\	nic	.	8b-\	nic	.
8AA|>/	.	8A/	.	8a|\	.	8A\	mi-	8a\	mi-	.	8a\	mi-	.
!	!	!	!	!	!	!	!	!	!	!	!LO:LB:g=original	!	!
8BB-|>/	.	8B-/	.	8b-|\	.	8B-\	-łe-	8b-\	-łe-	.	8b-\	-łe-	.
8C|>/J	.	8c/J	.	8cc|\J	.	8c\	-go	8cc\	-go	.	8cc\	-go	.
!	!	!	!	!LO:LB:g=original	!	!	!	!	!	!	!	!	!
=35	=35	=35	=35	=35	=35	=35	=35	=35	=35	=35	=35	=35	=35
4D|>\	.	4d/	.	4dd|\	.	4d\	nie-	4dd\	nie-	.	4dd\	nie-	.
8C|>/L	.	8c/L	.	8cc|\L	.	8c\L	-ma-	8cc\L	-ma-	.	8cc\L	-ma-	.
8BB-|>/J	.	8B-/J	.	8b-|\J	.	8B-\J	.	8b-\J	.	.	8b-\J	.	.
=36	=36	=36	=36	=36	=36	=36	=36	=36	=36	=36	=36	=36	=36
2AA|>/	.	2A/	.	2a/	.	2A\	-my	2a\	-my	.	2a\	-my	.
=37	=37	=37	=37	=37	=37	=37	=37	=37	=37	=37	=37	=37	=37
8AA|>/L	.	8A/L	.	8a|>/L	.	8A\	tyl-	8a\	tyl-	.	8a\	tyl-	.
8BB-|>/	.	8B-/	.	8b-|>/	.	8B-\	-ko	8b-\	-ko	.	8b-\	-ko	.
!	!	!	!	!	!	!	!	!LO:LB:g=original	!	!	!	!	!
8AA|>/	.	8A/	.	8a|>/	.	8A\	tor-	8a\	tor-	.	8a\	tor-	.
8GG|>/J	.	8G/J	.	8g|>/J	.	8G\	-by	8g\	-by	.	8g\	-by	.
!LO:LB:g=original	!	!	!	!	!	!LO:LB:g=original	!	!	!	!	!	!	!
=38	=38	=38	=38	=38	=38	=38	=38	=38	=38	=38	=38	=38	=38
8AA|>/L	.	8A/L	.	8a|>/L	.	8A\	są	8a\	są	.	8a\	są	.
8BB-|>/	.	8B-/	.	8b-|>/	.	8B-\	ła-	8b-\	ła-	.	8b-\	ła-	.
8AA|>/	.	8A/	.	8a|>/	.	8A\	-ta-	8a\	-ta-	.	8a\	-ta-	.
8GG|>/J	.	8G/J	.	8g|>/J	.	8G\	-mi	8g\	-mi	.	8g\	-mi	.
=39	=39	=39	=39	=39	=39	=39	=39	=39	=39	=39	=39	=39	=39
4C/	.	4c/	.	4cc|\	.	4c\	o	4cc\	o	.	4cc\	o	.
8GG/L	.	8G/L	.	8g|\L	.	8G\	zdo-	8g\	zdo-	.	8g\	zdo-	.
8BB-/J	.	8B-/J	.	8b-|\J	.	8B-\	-bio-	8b-\	-bio-	.	8b-\	-bio-	.
!	!	!	!	!	!	!	!	!	!	!	!LO:LB:g=original	!	!
=40	=40	=40	=40	=40	=40	=40	=40	=40	=40	=40	=40	=40	=40
2AA/	.	2A/	.	2a/	.	2A\	-ne	2a\	-ne	.	2a\	-ne	.
=41	=41	=41	=41	=41	=41	=41	=41	=41	=41	=41	=41	=41	=41
4B-\	.	4B-/	.	4b-\	.	4B-\	na	4b-\	na	.	4b-\	na	.
4F\	.	4c/	.	4cc\	.	4c\	Kru-	4cc\	Kru-	.	4cc\	Kru-	.
=42	=42	=42	=42	=42	=42	=42	=42	=42	=42	=42	=42	=42	=42
*	*	*	*	*2\right	*	*	*	*	*	*	*	*	*
2BB-/	.	2d/	.	2dd\	.	2d\	-py	2dd\	-py	.	2dd\	-py	.
!	!	!LO:LB:g=original	!	!	!	!	!	!LO:PB:g=original	!	!	!	!	!
=43	=43	=43	=43	=43	=43	=43	=43	=43	=43	=43	=43	=43	=43
4B-\	.	4B-/	.	4b-\	.	4B-\	na	4b-\	na	.	4b-\	na	.
4F\	.	4c/	.	4cc\	.	4c\	ſzpe-	4cc\	ſzpe-	[[kru-	4cc\	ſzpe-	.
=44	=44	=44	=44	=44	=44	=44	=44	=44	=44	=44	=44	=44	=44
2BB-/	.	2d/	.	2dd\	.	2d\	-rki	2dd\	-rki	-py]]	2dd\	-rki	.
!	!	!	!	!	!	!LO:LB:g=original	!	!	!	!	!	!	!
=45	=45	=45	=45	=45	=45	=45	=45	=45	=45	=45	=45	=45	=45
8D\L	.	8d/L	.	8dd\L	.	8d\	y	8dd\	y	.	8dd\	y	.
8E-\	.	8e-/	.	8ee-\	.	8e-\	na	8ee-\	na	.	8ee-\	na	.
8D\	.	8d/	.	8dd\	.	8d\	in-	8dd\	in-	.	8dd\	in-	.
8C\J	.	8c/J	.	8cc\J	.	8c\	-ną	8cc\	-ną	.	8cc\	-ną	.
=46	=46	=46	=46	=46	=46	=46	=46	=46	=46	=46	=46	=46	=46
8D/L	.	8d/L	.	8dd\L	.	8d\	le-	8dd\	le-	.	8dd\	le-	.
8C/	.	8c/	.	8cc\	.	8c\	-gu-	8cc\	-gu-	.	8cc\	-gu-	.
8BB-/	.	8B-/	.	8b-\	.	8B-\	-mi-	8b-\	-mi-	.	8b-\	-mi-	.
8AA/J	.	8A/J	.	8a\J	.	8A\	-nę	8a\	-nę	.	8a\	-nę	.
!	!	!	!	!	!	!	!	!	!	!	!LO:LB:g=original	!	!
=47	=47	=47	=47	=47	=47	=47	=47	=47	=47	=47	=47	=47	=47
4D\	4	4B-/	.	4b-/	.	4B-\	zro-	4b-\	zro-	.	4b-\	zro-	.
4DD/	#	4A/	.	4a/	.	4A\	-bio-	4a\	-bio-	.	4a\	-bio-	.
=48	=48	=48	=48	=48	=48	=48	=48	=48	=48	=48	=48	=48	=48
2GG/	.	2G/	.	2g/	.	2G\	-ne	2g\	-ne	.	2g\	-ne	.
!	!	!	!	!LO:LB:g=original	!	!	!	!LO:LB:g=original	!	!	!	!	!
=49	=49	=49	=49	=49	=49	=49	=49	=49	=49	=49	=49	=49	=49
8D|>/L	.	8d/L	.	8dd|\L	.	8d\	y	8dd\	y	.	8dd\	y	.
8D|>/	.	8d/	.	8dd|\	.	8d\	w tych	8dd\	w tych	.	8dd\	w tych	.
8BB-|>/	.	8B-/	.	8b-|\	.	8B-\	ma-	8b-\	ma-	.	8b-\	ma-	.
8D|>/J	.	8d/J	.	8dd|\J	.	8d\	-ło	8dd\	-ło	.	8dd\	-ło	.
!	!	!	!	!	!	!LO:LB:g=original	!	!	!	!	!	!	!
=50	=50	=50	=50	=50	=50	=50	=50	=50	=50	=50	=50	=50	=50
8C|>/L	.	8c/L	.	8cc\L	.	8c\	procz	8cc\	procz	.	8cc\	procz	.
8C|>/	.	8c/	.	8cc\	.	8c\	ta-	8cc\	ta-	.	8cc\	ta-	.
8AA|>/	.	8A/	.	8a\	.	8A\	-ba-	8a\	-ba-	.	8a\	-ba-	.
8C|>/J	.	8c/J	.	8cc\J	.	8c\	-ki	8cc\	-ki	.	8cc\	-ki	.
=51	=51	=51	=51	=51	=51	=51	=51	=51	=51	=51	=51	=51	=51
4F\	.	4B-/	.	4b-\	.	4B-\	y	4b-\	y	.	4b-\	y	.
4FF/	.	4A/	.	4a\	.	4A\	chle-	4a\	chle-	.	4a\	chle-	.
!LO:LB:g=original	!	!	!	!	!	!	!	!	!	!	!	!	!
=52	=52	=52	=52	=52	=52	=52	=52	=52	=52	=52	=52	=52	=52
4BB-/	.	4B-/	.	4b-\	.	4B-\	-ba	4b-\	-ba	.	4b-\	-ba	.
4r	.	4r	.	4r	.	4r	.	4r	.	.	4r	.	.
!	!	!	!	!	!	!	!	!	!	!	!LO:LB:g=original	!	!
=53	=53	=53	=53	=53	=53	=53	=53	=53	=53	=53	=53	=53	=53
8BB-/L	.	8B-/L	.	8b-\L	.	8BB-/	to-	8b-\	to-	.	8b-\	to-	.
8C/	.	8c/	.	8cc\	.	8C/	-nam	8cc\	-nam	.	8cc\	-nam	.
8D/	.	8d/	.	8dd\	.	8D\	w dro-	8dd\	w dro-	.	8dd\	w dro-	.
8E-/J	.	8e-/J	.	8ee-\J	.	8E-\	-gę	8ee-\	-gę	.	8ee-\	-gę	.
!	!	!	!	!	!	!	!	!LO:LB:g=original	!	!	!	!	!
=54	=54	=54	=54	=54	=54	=54	=54	=54	=54	=54	=54	=54	=54
8D\L	.	8d/L	.	8dd\L	.	8D\	da-	8dd\	da-	.	8dd\	da-	.
8E-\	.	8e-/	.	8ee-\	.	8E-\	-le-	8ee-\	-le-	.	8ee-\	-le-	.
!	!	!	!	!	!	!LO:LB:g=original	!	!	!	!	!	!	!
8D\	.	8d/	.	8dd\	.	8D/	-ką	8dd\	-ką	.	8dd\	-ką	.
8C\J	.	8c/J	.	8cc\J	.	8C/	iść	8cc\	iść	.	8cc\	iść	.
!	!	!LO:LB:g=original	!	!	!	!	!	!	!	!	!	!	!
=55	=55	=55	=55	=55	=55	=55	=55	=55	=55	=55	=55	=55	=55
4F\	.	4d/	.	4dd\	.	4D/	po-	4dd\	po-	.	4dd\	po-	.
4FF/	.	4c/	.	4cc\	.	4C/	-trze-	4cc\	-trze-	.	4cc\	-trze-	.
=56	=56	=56	=56	=56	=56	=56	=56	=56	=56	=56	=56	=56	=56
2BB-/	.	2B-/	.	2b-\	.	2BB-/	-ba	2b-\	-ba	.	2b-\	-ba	.
=57	=57	=57	=57	=57	=57	=57	=57	=57	=57	=57	=57	=57	=57
8AA|>/L	.	8A/L	.	8a/L	.	8A\	ma-	8a\	ma-	.	8a\	ma-	[[<..>]]
8BB-|>/	.	8B-/	.	8b-/	.	8B-\	-my	8b-\	-my	.	8b-\	-mÿ	.
8AA|>/	.	8A/	.	8a/	.	8A\	mą-	8a\	mą-	.	8a\	[[K]]	mą-
8GG|>/J	.	8G/J	.	8g/J	.	8G\	-kę	8g\	-kę	.	8g\	.	-kę
!	!	!	!	!	!	!	!	!	!	!	!LO:LB:g=original	!	!
=58	=58	=58	=58	=58	=58	=58	=58	=58	=58	=58	=58	=58	=58
8AA|>/L	.	8A/L	.	8a/L	.	8A\	y	8a\	y	.	8a\	[[ſło-	y
8BB-|>/	.	8B-/	.	8b-/	.	8B-\	sło-	8b-\	sło-	.	8b-\	-ni-	ſło-
8AA|>/	.	8A/	.	8a/	.	8A\	-ni-	8a\	-ni-	.	8a\	-nę]]	-ni-
8GG|>/J	.	8G/J	.	8g/J	.	8G\	-nę	8g\	-nę	.	8g\	.	-nę
=59	=59	=59	=59	=59	=59	=59	=59	=59	=59	=59	=59	=59	=59
4C|>/	.	4c/	.	4cc\	.	4c\	do	4cc\	do	.	4cc\	do	.
8BB-|>/L	.	8B-/L	.	8b-\L	.	8B-\L	gro-	8b-\L	gro-	.	8b-\L	gro-	.
8AA|>/J	.	8A/J	.	8a\J	.	8A\J	.	8a\J	.	.	8a\J	.	.
!	!	!	!	!	!	!LO:LB:g=original	!	!	!	!	!	!	!
=60	=60	=60	=60	=60	=60	=60	=60	=60	=60	=60	=60	=60	=60
2GG|>/	.	2G/	.	2g/	.	2G\	-chu	2g\	-chu	.	2g\	-chu	.
!	!	!	!	!LO:LB:g=original	!	!	!	!LO:LB:g=original	!	!	!	!	!
=61	=61	=61	=61	=61	=61	=61	=61	=61	=61	=61	=61	=61	=61
8AA|>/L	.	8A/L	.	8a/L	.	8A\	be-	8a\	bę-	.	8a\	de-	.
8BB-|>/	.	8B-/	.	8b-/	.	8B-\	-dzieſz	8b-\	-dzieſz	.	8b-\	-dzieſz	.
8AA|>/	.	8A/	.	8a/	.	8A\	da-	8a\	da-	.	8a\	da-	.
8GG|>/J	.	8G/J	.	8g/J	.	8G\	-wał	8g\	-wał	.	8g\	-wał	.
=62	=62	=62	=62	=62	=62	=62	=62	=62	=62	=62	=62	=62	=62
8AA|>/L	.	8A/L	.	8a/L	.	8A\	Jo-	8a\	Jo-	.	8a\	Jo-	.
8BB-|>/	.	8B-/	.	8b-/	.	8B-\	-ze-	8b-\	-ze-	.	8b-\	-ze-	.
8AA|>/	.	8A/	.	8a/	.	8A\	-fo-	8a\	-fo-	.	8a\	-fo-	.
8GG|>/J	.	8G/J	.	8g/J	.	8G\	-wi	8g\	-wi	.	8g\	-wi	.
!	!	!	!	!	!	!	!	!	!	!	!LO:LB:g=original	!	!
=63	=63	=63	=63	=63	=63	=63	=63	=63	=63	=63	=63	=63	=63
4D\	.	4B-/	.	4b-/	.	4B-\	po	4b-\	po	.	4b-\	po	.
4DD/	.	4A/	.	4a/	.	4A\	tro-	4a\	tro-	.	4a\	tro-	.
=64	=64	=64	=64	=64	=64	=64	=64	=64	=64	=64	=64	=64	=64
4GG/	.	2G/	.	4g/	.	4G\	-chu	4g\	-chu	.	4g\	-chu	.
4r	.	.	.	4r	.	4r	.	4r	.	.	4r	.	.
!LO:LB:g=original	!	!	!	!	!	!	!	!	!	!	!	!	!
=65	=65	=65	=65	=65	=65	=65	=65	=65	=65	=65	=65	=65	=65
8BB-|>/L	.	8B-/L	.	8b-\L	.	8B-\	ÿ	8b-\	y	.	8b-\	y	.
8BB-|>/	.	8B-/	.	8b-\	.	8B-\	go-	8b-\	go-	.	8b-\	go-	.
!	!	!	!	!	!	!LO:LB:g=original	!	!	!	!	!	!	!
8AA|>/	.	8A/	.	8a\	.	8A\	-rzał-	8a\	-rzał-	.	8a\	-rzał-	.
8BB-|>/J	.	8B-/J	.	8b-\J	.	8B-\	-kę	8b-\	-kę	.	8b-\	-kę	.
!	!	!	!	!	!	!	!	!LO:LB:g=original	!	!	!	!	!
=66	=66	=66	=66	=66	=66	=66	=66	=66	=66	=66	=66	=66	=66
8FF|>/L	.	8f/L	.	8f/L	.	8F\	do-	8f/	do-	.	8f/	do-	.
8GG|>/	.	8g/	.	8g/	.	8G\	-brą	8g/	-brą	.	8g/	-brą	.
8AA|>/	.	8a/	.	8a/	.	8A\	ma-	8a\	ma-	.	8a\	ma-	.
8FF|>/J	.	8f/J	.	8f/J	.	8F\	-my	8f/	-my	.	8f/	-my	.
=67	=67	=67	=67	=67	=67	=67	=67	=67	=67	=67	=67	=67	=67
4GG|>/	.	4G/	.	4g/	.	4G\	do	4g\	do	.	4g\	do	.
4AA|>/	.	4A/	.	4a/	.	4A\	sma-	4a\	sma-	.	4a\	sma-	.
!	!	!LO:LB:g=original	!	!	!	!	!	!	!	!	!	!	!
=68	=68	=68	=68	=68	=68	=68	=68	=68	=68	=68	=68	=68	=68
2BB-|>/	.	2B-/	.	2b-\	.	2B-\	-ku	2b-\	-ku	.	2b-\	-ku	.
!	!	!	!	!	!	!	!	!	!	!	!LO:LB:g=original	!	!
=69	=69	=69	=69	=69	=69	=69	=69	=69	=69	=69	=69	=69	=69
4G|\	.	4G/	.	4g/	.	4G\	do	4g\	do	.	4g\	do	.
4A|\	.	4A/	.	4a/	.	4A\	sma-	4a\	sma-	.	4a\	sma-	.
=70	=70	=70	=70	=70	=70	=70	=70	=70	=70	=70	=70	=70	=70
2B-|\	.	2B-/	.	2b-\	.	2B-\	-ku	2b-\	-ku	.	2b-\	-ku	.
!	!	!	!	!LO:PB:g=original	!	!	!	!	!	!	!	!	!
=71	=71	=71	=71	=71	=71	=71	=71	=71	=71	=71	=71	=71	=71
2B-\	.	8d/L	.	8dd|\L	.	8D/	py-	8dd\	Ka-	.	8dd\	ia-	.
!	!	!	!	!	!	!	!	!	!	!	!LO:TX:t=P:problem=wysokość nuty niejasna, nad nutą nieczytelne dookreślenie\nwysokości nuty	!	!
.	.	16c/L	.	16cc|\L	.	16C/LL	-zy	16cc\LL	-szę	.	16cc\LL	-gły	.
.	.	16d/JJ	.	16dd|\JJ	.	16D/JJ	.	16dd\JJ	.	.	16dd\JJ	.	.
!	!	!	!	!	!	!LO:LB:g=original	!	!	!	!	!	!	!
.	.	8e-/L	.	8ee-\L	.	8E-\	pię-	8ee-\	Klos-	.	8ee-\	Kru-	.
.	.	8d/J	.	8dd\J	.	8D\	-kne	8dd\	-ki	.	8dd\	-py	.
=72	=72	=72	=72	=72	=72	=72	=72	=72	=72	=72	=72	=72	=72
2BB-/	.	8d/L	.	8dd'\L	.	8D\	cie-	8dd\	cie-	.	8dd\	cie-	.
.	.	16c/L	.	16cc|\L	.	16C\LL	-płe	16cc\LL	-płe	.	16cc\LL	-płe	.
.	.	16d/JJ	.	16dd|\JJ	.	16D\JJ	.	16dd\JJ	.	.	16dd\JJ	.	.
!	!	!	!	!	!	!	!	!LO:LB:g=original	!	!	!	!	!
.	.	8e-/L	.	8ee-\L	.	8E-\	pla-	8ee-\	pla-	.	8ee-\	pla-	.
.	.	8d/J	.	8dd\J	.	8D\	-cki	8dd\	-cki	.	8dd\	-cki	.
=73	=73	=73	=73	=73	=73	=73	=73	=73	=73	=73	=73	=73	=73
4B-|\	.	4d/	.	4dd\	.	4D\	do	4dd\	do	.	4dd\	do	.
4F|\	.	4e-/	.	4ee-\	.	4E-\	ma-	4ee-\	ma-	.	4ee-\	ma-	.
=74	=74	=74	=74	=74	=74	=74	=74	=74	=74	=74	=74	=74	=74
2BB-/	.	2f/	.	2ff\	.	2F\	-ku	2ff\	-ku	.	2ff\	-ku	.
!	!	!	!	!	!	!	!	!	!	!	!LO:LB:g=original	!	!
=75	=75	=75	=75	=75	=75	=75	=75	=75	=75	=75	=75	=75	=75
4B-\	.	4d/	.	4dd\	.	4D\	do	4dd\	do	.	4dd\	do	.
4F\	.	4e-/	.	4ee-\	.	4E-\	ma-	4ee-\	ma-	.	4ee-\	ma-	.
=76	=76	=76	=76	=76	=76	=76	=76	=76	=76	=76	=76	=76	=76
2BB-/	.	2f/	.	2ff\	.	2F\	-ku	2ff\	-ku	.	2ff\	-ku	.
=77	=77	=77	=77	=77	=77	=77	=77	=77	=77	=77	=77	=77	=77
8D|>/L	.	8d/L	.	8dd|\L	.	8D/	wszy-	8dd\	wszy-	.	8dd\	wszy-	.
8C|>/	.	8c/	.	8cc|\	.	8C/	-tko	8cc\	-tko	.	8cc\	-tko	.
!	!	!	!	!	!	!LO:LB:g=original	!	!	!	!	!	!	!
8BB-|>/	.	8B-/	.	8b-|\	.	8BB-/	to	8b-\	to	.	8b-\	to	.
8AA|>/J	.	8A/J	.	8a|\J	.	8AA/	Jo-	8a\	be-	.	8a\	be-	.
=78	=78	=78	=78	=78	=78	=78	=78	=78	=78	=78	=78	=78	=78
8C|>/L	.	8c/L	.	8cc|\L	.	8C/	-zef	8cc\	-dzie	.	8cc\	-dzie	.
8BB-|>/	.	8B-/	.	8b-|\	.	8BB-/	be-	8b-\	Jo-	.	8b-\	Jo-	.
8AA|>/	.	8A/	.	8a|\	.	8AA/	-dzie	8a\	-zef	.	8a\	-zef	.
8GG|>/J	.	8G/J	.	8g|\J	.	8GG/	miał	8g\	miał	.	8g\	miał	.
!	!	!	!	!	!	!	!	!LO:LB:g=original	!	!	!	!	!
=79	=79	=79	=79	=79	=79	=79	=79	=79	=79	=79	=79	=79	=79
4D\	.	4B-/	.	4b-/	.	4BB-/	do	4b-\	do	.	4b-\	do	.
4DD/	#	4A/	.	4a/	.	4AA/	sma-	4a\	sma-	.	4a\	sma-	.
=80	=80	=80	=80	=80	=80	=80	=80	=80	=80	=80	=80	=80	=80
2GG/	.	2G/	.	2g/	.	2GG/	-ku	2g\	-ku	.	2g\	-ku	.
!LO:LB:g=original	!	!LO:LB:g=original	!	!LO:LB:g=original	!	!	!	!	!	!	!	!	!
=81	=81	=81	=81	=81	=81	=81	=81	=81	=81	=81	=81	=81	=81
!	!	!	!	!	!LO:DY:a:rj	!	!	!	!	!	!	!	!
4G\	.	8g/L	.	8g/L	f	0r	.	0r	.	.	0r	.	.
.	.	16d/L	.	16d/L	.	.	.	.	.	.	.	.	.
.	.	16g/JJ	.	16g/JJ	.	.	.	.	.	.	.	.	.
4G\	.	8g/L	.	8b-\L	.	.	.	.	.	.	.	.	.
.	.	8b-/J	.	8dd\J	.	.	.	.	.	.	.	.	.
=82	=82	=82	=82	=82	=82	=82	=82	=82	=82	=82	=82	=82	=82
!LO:TX:t=P:problem=mixed beam	!	!	!	!	!	!	!	!	!	!	!	!	!
8D\L	.	8a/L	.	8cc\L	.	.	.	.	.	.	.	.	.
8DD/	.	16g/L	.	16b-\L	.	.	.	.	.	.	.	.	.
.	.	16f#X/JJ	.	16a\JJ	.	.	.	.	.	.	.	.	.
8GG/	.	4g/	.	4g/	.	.	.	.	.	.	.	.	.
8BB-/J	.	.	.	.	.	.	.	.	.	.	.	.	.
=83	=83	=83	=83	=83	=83	=83	=83	=83	=83	=83	=83	=83	=83
4G\	.	8g/L	.	8g/L	.	.	.	.	.	.	.	.	.
.	.	16d/L	.	16d/L	.	.	.	.	.	.	.	.	.
.	.	16g/JJ	.	16g/JJ	.	.	.	.	.	.	.	.	.
4GG/	.	8g/L	.	8b-\L	.	.	.	.	.	.	.	.	.
.	.	8b-/J	.	8dd\J	.	.	.	.	.	.	.	.	.
=84	=84	=84	=84	=84	=84	=84	=84	=84	=84	=84	=84	=84	=84
4D\	7 #	4a/	.	4cc\	.	.	.	.	.	.	.	.	.
4GG/	.	4g/	.	4b-\	.	.	.	.	.	.	.	.	.
=85	=85	=85	=85	=85	=85	=85	=85	=85	=85	=85	=85	=85	=85
4G\	.	8g/L	.	8g/L	.	0r	.	0r	.	.	0r	.	.
.	.	16d/L	.	16d/L	.	.	.	.	.	.	.	.	.
.	.	16g/JJ	.	16g/JJ	.	.	.	.	.	.	.	.	.
4GG/	.	8g/L	.	8b-\L	.	.	.	.	.	.	.	.	.
.	.	8b-/J	.	8dd\J	.	.	.	.	.	.	.	.	.
=86	=86	=86	=86	=86	=86	=86	=86	=86	=86	=86	=86	=86	=86
!LO:TX:t=P:problem=mixed beam	!	!	!	!	!	!	!	!	!	!	!	!	!
8D\L	.	8a/L	.	8cc\L	.	.	.	.	.	.	.	.	.
8DD/	.	16g/L	.	16b-\L	.	.	.	.	.	.	.	.	.
.	.	16f#X/JJ	.	16a\JJ	.	.	.	.	.	.	.	.	.
8GG/	.	4g/	.	4g/	.	.	.	.	.	.	.	.	.
8BB-/J	.	.	.	.	.	.	.	.	.	.	.	.	.
=87	=87	=87	=87	=87	=87	=87	=87	=87	=87	=87	=87	=87	=87
!LO:TX:t=P:problem=mixed beam	!	!	!	!	!	!	!	!	!	!	!	!	!
8E-\L	.	8g/L	.	8b-/L	.	.	.	.	.	.	.	.	.
8C\	.	16f#X/L	.	16a/L	.	.	.	.	.	.	.	.	.
.	.	16g/JJ	.	16g/JJ	.	.	.	.	.	.	.	.	.
8D\	4	8f#/L	.	8a/L	.	.	.	.	.	.	.	.	.
8DD/J	#	8d/J	.	8f#X/J	.	.	.	.	.	.	.	.	.
=88	=88	=88	=88	=88	=88	=88	=88	=88	=88	=88	=88	=88	=88
4G\	.	4g/	.	4g/	.	.	.	.	.	.	.	.	.
4GG/	.	4G/	.	4G/	.	.	.	.	.	.	.	.	.
!	!	!	!	!LO:LB:g=original	!	!	!	!	!	!	!LO:LB:g=original	!	!
=89	=89	=89	=89	=89	=89	=89	=89	=89	=89	=89	=89	=89	=89
!LO:TX:a:t=2	!	!LO:TX:a:t=2	!	!LO:TX:a:t=2	!	!	!	!	!	!	!	!	!
1r	.	1r	.	1r	.	8c\	iuz	8cc\	iuz	.	8cc\	iuz	.
.	.	.	.	.	.	16B-\LL	tez	16b-\LL	tez	.	16b-\LL	tez	.
.	.	.	.	.	.	16A\JJ	.	16a\JJ	.	.	16a\JJ	.	.
.	.	.	.	.	.	8B-\	te-	8b-\	te-	.	8b-\	te-	.
.	.	.	.	.	.	16A\LL	-raz	16a\LL	-raz	.	16a\LL	-raz	.
.	.	.	.	.	.	16G\JJ	.	16g\JJ	.	.	16g\JJ	.	.
!	!	!	!	!	!	!LO:LB:g=original	!	!	!	!	!	!	!
=90	=90	=90	=90	=90	=90	=90	=90	=90	=90	=90	=90	=90	=90
.	.	.	.	.	.	8c\	o-	8cc\	o-	.	8cc\	o-	.
.	.	.	.	.	.	16B-\LL	-dey-	16b-\LL	-dey-	.	16b-\LL	-dey-	.
.	.	.	.	.	.	16A\JJ	.	16a\JJ	.	.	16a\JJ	.	.
.	.	.	.	.	.	8B-\	-dzie-	8b-\	-dzie-	.	8b-\	-dzie-	.
.	.	.	.	.	.	16A\LL	-my	16a\LL	-my	.	16a\LL	-my	.
.	.	.	.	.	.	16G\JJ	.	16g\JJ	.	.	16g\JJ	.	.
!	!	!LO:LB:g=original	!	!	!	!	!	!	!	!	!	!	!
=91	=91	=91	=91	=91	=91	=91	=91	=91	=91	=91	=91	=91	=91
!	!	!	!	!	!	!LO:TX:a:t=2	!	!	!	!	!LO:TX:a:t=2	!	!
8C|>/L	.	8c/L	.	8cc\L	.	1r	.	1r	.	.	1r	.	.
16BB-|>/L	.	16B-/L	.	16b-\L	.	.	.	.	.	.	.	.	.
16AA|>/JJ	.	16A/JJ	.	16a\JJ	.	.	.	.	.	.	.	.	.
8BB-|>/L	.	8B-/L	.	8b-\L	.	.	.	.	.	.	.	.	.
16AA|>/L	.	16A/L	.	16a\L	.	.	.	.	.	.	.	.	.
16GG|>/JJ	.	16G/JJ	.	16g\JJ	.	.	.	.	.	.	.	.	.
=92	=92	=92	=92	=92	=92	=92	=92	=92	=92	=92	=92	=92	=92
8C|>/L	.	8c/L	.	8cc\L	.	.	.	.	.	.	.	.	.
16BB-|>/L	.	16B-/L	.	16b-\L	.	.	.	.	.	.	.	.	.
16AA|>/JJ	.	16A/JJ	.	16a\JJ	.	.	.	.	.	.	.	.	.
8BB-|>/L	.	8B-/L	.	8b-/L	.	.	.	.	.	.	.	.	.
16AA|>/L	.	16A/L	.	16a/L	.	.	.	.	.	.	.	.	.
16GG|>/JJ	.	16G/JJ	.	16g/JJ	.	.	.	.	.	.	.	.	.
=93	=93	=93	=93	=93	=93	=93	=93	=93	=93	=93	=93	=93	=93
!LO:TX:a:t=2	!	!LO:TX:a:t=2	!	!LO:TX:a:t=2	!	!	!	!	!	!	!	!	!
1r	.	1r	.	1r	.	8A\	bo	8a\	bo	.	8a\	bo	.
.	.	.	.	.	.	8B-\	iuz	8b-\	iuz	.	8b-\	iuz	.
.	.	.	.	.	.	8A\	na	8a\	na	.	8a\	na	.
.	.	.	.	.	.	8G\	wies	8g\	wies	.	8g\	wies	.
!	!	!	!	!	!	!	!	!LO:LB:g=original	!	!	!	!	!
=94	=94	=94	=94	=94	=94	=94	=94	=94	=94	=94	=94	=94	=94
.	.	.	.	.	.	8A\	po-	8a\	po-	.	8a\	po-	.
.	.	.	.	.	.	8B-\	-le	8b-\	-le	.	8b-\	-le	.
!	!	!	!	!	!	!	!	!	!	!	!LO:LB:g=original	!	!
.	.	.	.	.	.	8A\	zie-	8a\	zie-	.	8a\	zie-	.
.	.	.	.	.	.	8G\	-my	8g\	-my	.	8g\	-my	.
!LO:LB:g=original	!	!LO:PB:g=original	!	!	!	!	!	!	!	!	!	!	!
=95	=95	=95	=95	=95	=95	=95	=95	=95	=95	=95	=95	=95	=95
4BB-/	.	4B-/	.	4b-'\	.	8B-\	pa-	8b-\	pa-	.	8b-\	pa-	.
.	.	.	.	.	.	8B-\	-mię-	8b-\	-mię-	.	8b-\	-mię-	.
4F\	.	4c/	.	4cc'\	.	4c\	-tay	4cc\	-tay	.	4cc\	-tay	.
!	!	!	!	!	!	!LO:LB:g=original	!	!	!	!	!	!	!
=96	=96	=96	=96	=96	=96	=96	=96	=96	=96	=96	=96	=96	=96
2BB-/	.	2d/	.	2dd\	.	2d\	ze	2dd\	ze	.	2dd\	ze	.
=97	=97	=97	=97	=97	=97	=97	=97	=97	=97	=97	=97	=97	=97
4BB-/	.	4B-/	.	4b-\	.	8B-\	o	8b-\	o	.	8b-\	o	.
.	.	.	.	.	.	8B-\	nas	8b-\	nas	.	8b-\	nas	.
4FF/	.	4c/	.	4cc\	.	4c\	Pa-	4cc\	Pa-	.	4cc\	Pa-	.
=98	=98	=98	=98	=98	=98	=98	=98	=98	=98	=98	=98	=98	=98
2BB-/	.	2d/	.	2dd\	.	2d\	-nie	2dd\	-nie	.	2dd\	-nie	.
=99	=99	=99	=99	=99	=99	=99	=99	=99	=99	=99	=99	=99	=99
8GG/L	.	8g/L	.	8g|/L	.	8G\	miey	8g/	miey	.	8g/	miey	.
8FF#X/	.	8f#X/	.	8f#X|/	.	8F#X\	nad	8f#X/	nad	.	8f#X/	nad	.
8GG/	.	8g/	.	8g|/	.	8G\	na-	8g/	na-	.	8g/	na-	.
8AA/J	.	8a/J	.	8a|/J	.	8A\	-mi	8a\	-mi	.	8a/	-mi	.
!	!	!	!	!	!	!	!	!LO:LB:g=original	!	!	!LO:LB:g=original	!	!
=100	=100	=100	=100	=100	=100	=100	=100	=100	=100	=100	=100	=100	=100
8BB-'>/L	.	8B-/L	.	8b-|\L	.	8B-\	zli-	8b-\	zli-	.	8b-\	zli-	.
8AA'>/	.	8A/	.	8a|\	.	8A\	-to-	8a\	-to-	.	8a\	-to-	.
8BB-'>/	.	8B-/	.	8b-|\	.	8B-\	-wa-	8b-\	-wa-	.	8b-\	-wa-	.
8C'>/J	.	8c/J	.	8cc|\J	.	8c\	-nie	8cc\	-nie	.	8cc\	-nie	.
!	!	!	!	!LO:LB:g=original	!	!LO:LB:g=original	!	!	!	!	!	!	!
=101	=101	=101	=101	=101	=101	=101	=101	=101	=101	=101	=101	=101	=101
4D\	.	4B-/	.	4b-/	.	4B-\	naſz	4b-\	naſz	.	4b-\	naſz	.
4DD/	.	4A/	.	4a/	.	4A\	Pa-	4a\	Pa-	.	4a\	Pa-	.
=102	=102	=102	=102	=102	=102	=102	=102	=102	=102	=102	=102	=102	=102
4GG/	.	2G/	.	2g/	.	2G\	-nie	2g\	-nie	.	2g\	-nie	.
4r	.	.	.	.	.	.	.	.	.	.	.	.	.
=103	=103	=103	=103	=103	=103	=103	=103	=103	=103	=103	=103	=103	=103
!	!	!	!LO:DY:a:rj	!	!	!	!	!	!	!	!	!	!
4G\	.	8g/L	f	8g/L	.	0r	.	0r	.	.	0r	.	.
.	.	16d/L	.	16d/L	.	.	.	.	.	.	.	.	.
.	.	16g/JJ	.	16g/JJ	.	.	.	.	.	.	.	.	.
4GG/	.	8g/L	.	8b-\L	.	.	.	.	.	.	.	.	.
.	.	8b-/J	.	8dd\J	.	.	.	.	.	.	.	.	.
=104	=104	=104	=104	=104	=104	=104	=104	=104	=104	=104	=104	=104	=104
!LO:TX:t=P:problem=mixed beam	!	!	!	!	!	!	!	!	!	!	!	!	!
8D\L	.	8a/L	.	8cc\L	.	.	.	.	.	.	.	.	.
8DD/	.	16g/L	.	16b-\L	.	.	.	.	.	.	.	.	.
.	.	16f#X/JJ	.	16a\JJ	.	.	.	.	.	.	.	.	.
8GG/	.	4g/	.	4g/	.	.	.	.	.	.	.	.	.
8BB-/J	.	.	.	.	.	.	.	.	.	.	.	.	.
!	!	!LO:LB:g=original	!	!	!	!	!	!	!	!	!	!	!
=105	=105	=105	=105	=105	=105	=105	=105	=105	=105	=105	=105	=105	=105
4G\	.	8g/L	.	8g/L	.	.	.	.	.	.	.	.	.
.	.	16d/L	.	16d/L	.	.	.	.	.	.	.	.	.
.	.	16g/JJ	.	16g/JJ	.	.	.	.	.	.	.	.	.
4GG/	.	8g/L	.	8b-\L	.	.	.	.	.	.	.	.	.
.	.	8b-/J	.	8dd\J	.	.	.	.	.	.	.	.	.
=106	=106	=106	=106	=106	=106	=106	=106	=106	=106	=106	=106	=106	=106
4D\	7 #	4a/	.	4cc\	.	.	.	.	.	.	.	.	.
4GG/	.	4g/	.	4b-\	.	.	.	.	.	.	.	.	.
=107	=107	=107	=107	=107	=107	=107	=107	=107	=107	=107	=107	=107	=107
4G\	.	8g/L	.	8g/L	.	0r	.	0r	.	.	0r	.	.
.	.	16d/L	.	16d/L	.	.	.	.	.	.	.	.	.
.	.	16g/JJ	.	16g/JJ	.	.	.	.	.	.	.	.	.
4GG/	.	8g/L	.	8b-\L	.	.	.	.	.	.	.	.	.
.	.	8b-/J	.	8dd\J	.	.	.	.	.	.	.	.	.
=108	=108	=108	=108	=108	=108	=108	=108	=108	=108	=108	=108	=108	=108
8D/L	.	8a/L	.	8cc\L	.	.	.	.	.	.	.	.	.
8DD/	.	16g/L	.	16b-\L	.	.	.	.	.	.	.	.	.
.	.	16f#X/JJ	.	16a\JJ	.	.	.	.	.	.	.	.	.
8GG/	.	4g/	.	4g/	.	.	.	.	.	.	.	.	.
8BB-/J	.	.	.	.	.	.	.	.	.	.	.	.	.
!LO:LB:g=original	!	!	!	!LO:LB:g=original	!	!	!	!	!	!	!	!	!
=109	=109	=109	=109	=109	=109	=109	=109	=109	=109	=109	=109	=109	=109
8E-\L	.	8g/L	.	8b-/L	.	.	.	.	.	.	.	.	.
8C\J	.	16f#X/L	.	16a/L	.	.	.	.	.	.	.	.	.
.	.	16g/JJ	.	16g/JJ	.	.	.	.	.	.	.	.	.
!LO:TX:t=P:problem=mixed beam	!	!	!	!	!	!	!	!	!	!	!	!	!
8D\L	4	8f#X/L	.	8a/L	.	.	.	.	.	.	.	.	.
8DD/J	#	8d/J	.	8f#X/J	.	.	.	.	.	.	.	.	.
=110	=110	=110	=110	=110	=110	=110	=110	=110	=110	=110	=110	=110	=110
2GG/	.	4g/	.	2bn\	.	.	.	.	.	.	.	.	.
.	.	4G/	.	.	.	.	.	.	.	.	.	.	.
==	==	==	==	==	==	==	==	==	==	==	==	==	==
*-	*-	*-	*-	*-	*-	*-	*-	*-	*-	*-	*-	*-	*-
!!!system-decoration: [(s1,s2,s3)][(s4,s5)]s6
!!!RDF**dynam: f = f.
!!!RDF**kern: | = vertical stroke
!!!RDF**kern: > = above
!!!RDF**kern: < = below
!!!ENC: Mateusz Solarz
!!!END: 2020-12-09
!!!EED: Andrzej Borzym
!!!EEV: 2022-01-10
